assets/shop-tab/Asset/Amazon.svg

<svg width="94" height="53" viewBox="0 0 94 53" fill="none" xmlns="http://www.w3.org/2000/svg">
<mask id="path-1-outside-1_634_1219" maskUnits="userSpaceOnUse" x="-0.5" y="-0.5" width="95" height="54" fill="black">
<rect fill="white" x="-0.5" y="-0.5" width="95" height="54"/>
<path fill-rule="evenodd" clip-rule="evenodd" d="M0.5 8.5C0.5 4.08172 4.08172 0.5 8.5 0.5H85.5C89.9183 0.5 93.5 4.08172 93.5 8.5V21.6C91.2178 22.0633 89.5 24.081 89.5 26.5C89.5 28.919 91.2178 30.9367 93.5 31.4V44.5C93.5 48.9183 89.9183 52.5 85.5 52.5H8.5C4.08172 52.5 0.5 48.9183 0.5 44.5V31.4C2.78224 30.9367 4.5 28.919 4.5 26.5C4.5 24.081 2.78224 22.0633 0.5 21.6V8.5Z"/>
</mask>
<path fill-rule="evenodd" clip-rule="evenodd" d="M0.5 8.5C0.5 4.08172 4.08172 0.5 8.5 0.5H85.5C89.9183 0.5 93.5 4.08172 93.5 8.5V21.6C91.2178 22.0633 89.5 24.081 89.5 26.5C89.5 28.919 91.2178 30.9367 93.5 31.4V44.5C93.5 48.9183 89.9183 52.5 85.5 52.5H8.5C4.08172 52.5 0.5 48.9183 0.5 44.5V31.4C2.78224 30.9367 4.5 28.919 4.5 26.5C4.5 24.081 2.78224 22.0633 0.5 21.6V8.5Z" fill="white"/>
<path d="M93.5 21.6L93.5995 22.09L94 22.0087V21.6H93.5ZM93.5 31.4H94V30.9913L93.5995 30.91L93.5 31.4ZM0.5 31.4L0.400534 30.91L0 30.9913V31.4H0.5ZM0.5 21.6H0V22.0087L0.400534 22.09L0.5 21.6ZM8.5 0.5V0C3.80558 0 0 3.80558 0 8.5H0.5H1C1 4.35786 4.35786 1 8.5 1V0.5ZM85.5 0.5V0H8.5V0.5V1H85.5V0.5ZM93.5 8.5H94C94 3.80558 90.1944 0 85.5 0V0.5V1C89.6421 1 93 4.35786 93 8.5H93.5ZM93.5 21.6H94V8.5H93.5H93V21.6H93.5ZM89.5 26.5H90C90 24.3235 91.5457 22.5069 93.5995 22.09L93.5 21.6L93.4005 21.11C90.8899 21.6196 89 23.8386 89 26.5H89.5ZM93.5 31.4L93.5995 30.91C91.5457 30.4931 90 28.6765 90 26.5H89.5H89C89 29.1614 90.8899 31.3804 93.4005 31.89L93.5 31.4ZM93.5 44.5H94V31.4H93.5H93V44.5H93.5ZM85.5 52.5V53C90.1944 53 94 49.1944 94 44.5H93.5H93C93 48.6421 89.6421 52 85.5 52V52.5ZM8.5 52.5V53H85.5V52.5V52H8.5V52.5ZM0.5 44.5H0C0 49.1944 3.80558 53 8.5 53V52.5V52C4.35786 52 1 48.6421 1 44.5H0.5ZM0.5 31.4H0V44.5H0.5H1V31.4H0.5ZM4.5 26.5H4C4 28.6765 2.45434 30.4931 0.400534 30.91L0.5 31.4L0.599466 31.89C3.11014 31.3804 5 29.1614 5 26.5H4.5ZM0.5 21.6L0.400534 22.09C2.45434 22.5069 4 24.3235 4 26.5H4.5H5C5 23.8386 3.11014 21.6196 0.599466 21.11L0.5 21.6ZM0.5 8.5H0V21.6H0.5H1V8.5H0.5Z" fill="#D9D9D9" mask="url(#path-1-outside-1_634_1219)"/>
<path d="M52.8469 32.7499C50.0244 34.8587 45.9332 35.9838 42.4109 35.9838C37.4719 35.9838 33.0256 34.1322 29.6617 31.0526C29.3975 30.8104 29.6343 30.4804 29.9514 30.669C33.5816 32.8099 38.0702 34.0979 42.7069 34.0979C45.8339 34.0979 49.2738 33.4421 52.4368 32.0813C52.9146 31.8755 53.3142 32.3985 52.8469 32.7499Z" fill="#FF9900"/>
<path d="M54.0205 31.39C53.6611 30.9228 51.6356 31.1692 50.7265 31.2785C50.4495 31.3128 50.4072 31.0685 50.6567 30.8928C52.2699 29.742 54.917 30.0741 55.2257 30.4599C55.5343 30.8478 55.1453 33.5373 53.6294 34.821C53.3968 35.0182 53.1748 34.9132 53.2784 34.6517C53.6188 33.7902 54.3821 31.8593 54.0205 31.39" fill="#FF9900"/>
<path d="M50.79 22.7686V21.65C50.79 21.4806 50.9168 21.3671 51.069 21.3671H56.0101C56.1687 21.3671 56.2955 21.4828 56.2955 21.65V22.6079C56.2934 22.7686 56.1602 22.9787 55.9234 23.3108L53.363 27.0162C54.3145 26.9926 55.3187 27.1362 56.1814 27.6291C56.3759 27.7406 56.4287 27.9035 56.4435 28.0642V29.2579C56.4435 29.4208 56.2659 29.6115 56.0799 29.5129C54.5597 28.705 52.5406 28.6171 50.8597 29.5215C50.6885 29.6158 50.5088 29.4272 50.5088 29.2643V28.1306C50.5088 27.9485 50.5109 27.6377 50.6906 27.3613L53.6569 23.0494H51.0754C50.9168 23.0494 50.79 22.9358 50.79 22.7686" fill="#221F1F"/>
<path d="M32.7659 29.7477H31.2626C31.1189 29.737 31.0047 29.6277 30.9941 29.4884V21.6683C30.9941 21.5119 31.1231 21.3876 31.2838 21.3876H32.6855C32.8314 21.394 32.9477 21.5076 32.9583 21.649V22.6713H32.9858C33.3515 21.6833 34.0387 21.2225 34.9647 21.2225C35.9056 21.2225 36.4933 21.6833 36.9162 22.6713C37.2799 21.6833 38.1065 21.2225 38.9924 21.2225C39.6225 21.2225 40.3117 21.4861 40.7325 22.0776C41.2082 22.7355 41.1109 23.6914 41.1109 24.5293L41.1088 29.4648C41.1088 29.6213 40.9799 29.7477 40.8192 29.7477H39.318C39.1679 29.737 39.0474 29.6148 39.0474 29.4648V25.3201C39.0474 24.9901 39.077 24.1671 39.0051 23.8542C38.8931 23.3292 38.5569 23.1813 38.1213 23.1813C37.7577 23.1813 37.3771 23.4278 37.2228 23.8221C37.0684 24.2164 37.0832 24.8765 37.0832 25.3201V29.4648C37.0832 29.6213 36.9543 29.7477 36.7936 29.7477H35.2924C35.1402 29.737 35.0218 29.6148 35.0218 29.4648L35.0197 25.3201C35.0197 24.4479 35.1614 23.1642 34.0936 23.1642C33.0132 23.1642 33.0555 24.4157 33.0555 25.3201V29.4648C33.0555 29.6213 32.9266 29.7477 32.7659 29.7477Z" fill="#221F1F"/>
<path d="M60.5493 21.2225C62.7799 21.2225 63.9871 23.1642 63.9871 25.633C63.9871 28.0182 62.653 29.9106 60.5493 29.9106C58.3589 29.9106 57.1665 27.9689 57.1665 25.5494C57.1665 23.1149 58.3737 21.2225 60.5493 21.2225M60.562 22.8191C59.4541 22.8191 59.3844 24.3493 59.3844 25.303C59.3844 26.2588 59.3696 28.299 60.5493 28.299C61.7143 28.299 61.7693 26.6531 61.7693 25.6501C61.7693 24.9901 61.7418 24.2014 61.5451 23.5756C61.376 23.0313 61.0398 22.8191 60.562 22.8191" fill="#221F1F"/>
<path d="M66.8795 29.7477H65.3826C65.2325 29.737 65.1119 29.6148 65.1119 29.4648L65.1098 21.6426C65.1225 21.499 65.2473 21.3876 65.3995 21.3876H66.7928C66.9239 21.394 67.0317 21.484 67.0613 21.6061V22.802H67.0888C67.5095 21.7326 68.0994 21.2225 69.1375 21.2225C69.812 21.2225 70.4695 21.469 70.8924 22.1441C71.2856 22.7698 71.2856 23.8221 71.2856 24.5786V29.5012C71.2687 29.6384 71.144 29.7477 70.996 29.7477H69.4885C69.3511 29.737 69.2369 29.6341 69.2221 29.5012V25.2537C69.2221 24.3986 69.3194 23.147 68.2813 23.147C67.9155 23.147 67.5793 23.3956 67.4123 23.7728C67.2009 24.2507 67.1734 24.7265 67.1734 25.2537V29.4648C67.1713 29.6213 67.0402 29.7477 66.8795 29.7477" fill="#221F1F"/>
<path d="M46.851 26.013V25.6829C45.7642 25.6829 44.6162 25.9187 44.6162 27.2174C44.6162 27.8753 44.9524 28.3211 45.5296 28.3211C45.9524 28.3211 46.3309 28.0575 46.5698 27.6289C46.8658 27.1017 46.851 26.6066 46.851 26.013M48.3669 29.7269C48.2676 29.8169 48.1238 29.8234 48.0117 29.7634C47.5128 29.3433 47.424 29.1483 47.1491 28.7476C46.3245 29.6005 45.741 29.8555 44.6712 29.8555C43.4068 29.8555 42.4216 29.0647 42.4216 27.481C42.4216 26.2444 43.0833 25.4022 44.0242 24.9907C44.8403 24.6264 45.9799 24.5621 46.851 24.4614V24.2642C46.851 23.902 46.8785 23.4734 46.6692 23.1605C46.4852 22.8798 46.1342 22.7641 45.8256 22.7641C45.2526 22.7641 44.7409 23.062 44.6162 23.6792C44.5908 23.8163 44.4914 23.9513 44.3561 23.9578L42.8973 23.7992C42.7747 23.7713 42.6393 23.6706 42.6732 23.4799C43.0093 21.6883 44.6056 21.1482 46.0349 21.1482C46.7664 21.1482 47.7221 21.3454 48.2993 21.9068C49.0308 22.5991 48.961 23.5227 48.961 24.5278V26.9024C48.961 27.616 49.2528 27.9289 49.5277 28.3146C49.6249 28.4518 49.6461 28.6168 49.5234 28.7197C49.2169 28.979 48.6714 29.4612 48.3712 29.7312L48.3669 29.7269" fill="#221F1F"/>
<path d="M27.1437 26.0131V25.6831C26.057 25.6831 24.9089 25.9188 24.9089 27.2175C24.9089 27.8754 25.2451 28.3212 25.8223 28.3212C26.2452 28.3212 26.6236 28.0576 26.8625 27.629C27.1585 27.1018 27.1437 26.6067 27.1437 26.0131M28.6597 29.7271C28.5603 29.8171 28.4165 29.8235 28.3045 29.7635C27.8055 29.3434 27.7167 29.1484 27.4419 28.7477C26.6173 29.6006 26.0337 29.8556 24.9639 29.8556C23.6996 29.8556 22.7143 29.0648 22.7143 27.4811C22.7143 26.2446 23.3761 25.4023 24.3169 24.9909C25.1331 24.6265 26.2727 24.5622 27.1437 24.4615V24.2644C27.1437 23.9022 27.1712 23.4736 26.9619 23.1607C26.778 22.8799 26.427 22.7642 26.1183 22.7642C25.5453 22.7642 25.0337 23.0621 24.9089 23.6793C24.8836 23.8164 24.7842 23.9515 24.6489 23.9579L23.19 23.7993C23.0674 23.7714 22.9321 23.6707 22.9659 23.48C23.3021 21.6884 24.8984 21.1483 26.3276 21.1483C27.0592 21.1483 28.0148 21.3455 28.592 21.907C29.3236 22.5992 29.2538 23.5228 29.2538 24.528V26.9025C29.2538 27.6161 29.5456 27.929 29.8204 28.3148C29.9177 28.4519 29.9388 28.6169 29.8162 28.7198C29.5096 28.9791 28.9641 29.4613 28.6639 29.7313L28.6597 29.7271" fill="#221F1F"/>
</svg>

<svg xmlns="http://www.w3.org/2000/svg" width="94" height="53" fill="none" viewBox="0 0 94 53"><mask id="a" width="95" height="54" x="-.5" y="-.5" fill="#000" maskUnits="userSpaceOnUse"><path fill="#fff" d="M-.5-.5h95v54h-95z"/><path fill-rule="evenodd" d="M.5 8.5a8 8 0 0 1 8-8h77a8 8 0 0 1 8 8v13.1a5.002 5.002 0 0 0 0 9.8v13.1a8 8 0 0 1-8 8h-77a8 8 0 0 1-8-8V31.4a5.002 5.002 0 0 0 0-9.8z" clip-rule="evenodd"/></mask><path fill="#fff" fill-rule="evenodd" d="M.5 8.5a8 8 0 0 1 8-8h77a8 8 0 0 1 8 8v13.1a5.002 5.002 0 0 0 0 9.8v13.1a8 8 0 0 1-8 8h-77a8 8 0 0 1-8-8V31.4a5.002 5.002 0 0 0 0-9.8z" clip-rule="evenodd"/><path fill="#d9d9d9" d="m93.5 21.6.1.49.4-.081V21.6zm0 9.8h.5v-.409l-.4-.081zm-93 0-.1-.49-.4.081v.409zm0-9.8H0v.409l.4.081zM8.5.5V0A8.5 8.5 0 0 0 0 8.5h1A7.5 7.5 0 0 1 8.5 1zm77 0V0h-77v1h77zm8 8h.5A8.5 8.5 0 0 0 85.5 0v1A7.5 7.5 0 0 1 93 8.5zm0 13.1h.5V8.5h-1v13.1zm-4 4.9h.5a4.5 4.5 0 0 1 3.6-4.41l-.1-.49-.1-.49A5.5 5.5 0 0 0 89 26.5zm4 4.9.1-.49A4.5 4.5 0 0 1 90 26.5h-1c0 2.661 1.89 4.88 4.4 5.39zm0 13.1h.5V31.4h-1v13.1zm-8 8v.5a8.5 8.5 0 0 0 8.5-8.5h-1a7.5 7.5 0 0 1-7.5 7.5zm-77 0v.5h77v-1h-77zm-8-8H0A8.5 8.5 0 0 0 8.5 53v-1A7.5 7.5 0 0 1 1 44.5zm0-13.1H0v13.1h1V31.4zm4-4.9H4a4.5 4.5 0 0 1-3.6 4.41l.1.49.1.49A5.5 5.5 0 0 0 5 26.5zm-4-4.9-.1.49A4.5 4.5 0 0 1 4 26.5h1c0-2.661-1.89-4.88-4.4-5.39zm0-13.1H0v13.1h1V8.5z" mask="url(#a)"/><path fill="#f90" d="M52.847 32.75c-2.823 2.109-6.914 3.234-10.436 3.234-4.94 0-9.385-1.852-12.75-4.931-.264-.243-.027-.573.29-.384 3.63 2.14 8.12 3.429 12.756 3.429 3.127 0 6.567-.656 9.73-2.017.478-.206.877.317.41.669"/><path fill="#f90" d="M54.02 31.39c-.359-.467-2.384-.22-3.294-.111-.276.034-.319-.21-.07-.386 1.614-1.151 4.261-.819 4.57-.433.308.388-.08 3.077-1.597 4.361-.232.197-.454.092-.35-.17.34-.86 1.103-2.792.741-3.261"/><path fill="#221f1f" d="M50.79 22.769V21.65c0-.17.127-.283.279-.283h4.941c.159 0 .285.116.285.283v.958c-.002.16-.135.37-.372.703l-2.56 3.705c.952-.023 1.956.12 2.818.613.195.112.248.274.263.435v1.194c0 .163-.178.354-.364.255-1.52-.808-3.54-.896-5.22.008-.172.095-.351-.094-.351-.257v-1.133c0-.183.002-.493.182-.77l2.966-4.312h-2.582a.275.275 0 0 1-.285-.28m-18.024 6.979h-1.503a.286.286 0 0 1-.269-.26v-7.82c0-.156.13-.28.29-.28h1.401c.146.006.263.12.273.261v1.022h.028c.366-.988 1.053-1.448 1.979-1.448.94 0 1.528.46 1.951 1.448.364-.988 1.19-1.448 2.076-1.448.63 0 1.32.263 1.74.855.476.657.379 1.613.379 2.451l-.002 4.936a.286.286 0 0 1-.29.283h-1.501a.29.29 0 0 1-.27-.283V25.32c0-.33.029-1.153-.043-1.466-.112-.525-.448-.673-.884-.673-.363 0-.744.247-.898.641s-.14 1.055-.14 1.498v4.145a.286.286 0 0 1-.29.283h-1.5a.286.286 0 0 1-.271-.283l-.002-4.145c0-.872.141-2.156-.926-2.156-1.08 0-1.038 1.252-1.038 2.156v4.145a.286.286 0 0 1-.29.283m27.784-8.525c2.23 0 3.437 1.941 3.437 4.41 0 2.385-1.334 4.278-3.438 4.278-2.19 0-3.383-1.942-3.383-4.362 0-2.434 1.208-4.326 3.383-4.326m.013 1.596c-1.108 0-1.178 1.53-1.178 2.484 0 .956-.014 2.996 1.165 2.996 1.165 0 1.22-1.646 1.22-2.649 0-.66-.027-1.449-.224-2.074-.169-.545-.505-.757-.983-.757m6.318 6.929h-1.497a.29.29 0 0 1-.271-.283l-.002-7.822a.286.286 0 0 1 .29-.255h1.393a.29.29 0 0 1 .268.218v1.196h.028c.42-1.07 1.01-1.58 2.049-1.58.674 0 1.331.247 1.754.922.394.626.394 1.678.394 2.435V29.5a.29.29 0 0 1-.29.247h-1.507a.286.286 0 0 1-.267-.247v-4.247c0-.855.097-2.107-.94-2.107-.367 0-.703.249-.87.626-.211.478-.239.954-.239 1.48v4.212a.29.29 0 0 1-.294.283m-20.028-3.734v-.33c-1.087 0-2.235.236-2.235 1.534 0 .658.336 1.104.914 1.104.422 0 .8-.264 1.04-.692.296-.527.281-1.022.281-1.616m1.516 3.714a.31.31 0 0 1-.355.036c-.5-.42-.588-.615-.863-1.015-.825.852-1.408 1.107-2.478 1.107-1.264 0-2.25-.79-2.25-2.374 0-1.237.662-2.079 1.603-2.49.816-.365 1.956-.429 2.827-.53v-.197c0-.362.028-.79-.182-1.104-.184-.28-.535-.396-.843-.396-.573 0-1.085.298-1.21.915-.025.137-.125.272-.26.279l-1.459-.159c-.122-.028-.258-.128-.224-.32.336-1.79 1.933-2.33 3.362-2.33.731 0 1.687.196 2.264.758.732.692.662 1.616.662 2.62v2.375c0 .714.292 1.027.567 1.413.097.137.118.302-.005.405-.306.259-.852.741-1.152 1.011zm-21.223-3.714v-.33c-1.087 0-2.235.236-2.235 1.535 0 .657.336 1.103.913 1.103.423 0 .802-.263 1.04-.692.297-.527.282-1.022.282-1.616m1.516 3.714a.31.31 0 0 1-.355.037c-.5-.42-.588-.616-.863-1.016-.825.853-1.408 1.108-2.478 1.108-1.264 0-2.25-.791-2.25-2.375 0-1.236.662-2.079 1.603-2.49.816-.364 1.956-.429 2.827-.53v-.197c0-.362.027-.79-.182-1.103-.184-.281-.535-.397-.844-.397-.573 0-1.084.298-1.21.915-.024.137-.124.273-.26.279l-1.458-.159c-.123-.028-.258-.128-.224-.319.336-1.792 1.932-2.332 3.362-2.332.731 0 1.687.198 2.264.759.732.692.662 1.616.662 2.621v2.375c0 .713.292 1.026.566 1.412.098.137.119.302-.004.405-.306.26-.852.741-1.152 1.011z"/></svg>
